Obsidian-SemiLight/actions/16s/mail-reply-custom.svg

<svg viewBox="0 0 16 16" xmlns="http://www.w3.org/2000/svg"><path d="m7 3-5 4 5 4v-3h7v-2h-7zm4.5 6-.478516 1.345703-1.2890621-.6132811.6132811 1.2890621-1.345703.478516 1.345703.478516-.6132811 1.289062 1.2890621-.613281.478516 1.345703.478516-1.345703 1.289062.613281-.613281-1.289062 1.345703-.478516-1.345703-.478516.613281-1.2890621-1.289062.6132811z" fill="#4d4d4d"/></svg>

<svg xmlns="http://www.w3.org/2000/svg" viewBox="0 0 16 16">
  <defs id="defs3051">
    <style type="text/css" id="current-color-scheme">
      .ColorScheme-Text {
        color:#4d4d4d;
      }
      </style>
  </defs>
 <path style="fill:currentColor;fill-opacity:1;stroke:none" 
     d="M 7 3 L 2 7 L 7 11 L 7 8 L 14 8 L 14 6 L 7 6 L 7 3 z M 11.5 9 L 11.021484 10.345703 L 9.7324219 9.7324219 L 10.345703 11.021484 L 9 11.5 L 10.345703 11.978516 L 9.7324219 13.267578 L 11.021484 12.654297 L 11.5 14 L 11.978516 12.654297 L 13.267578 13.267578 L 12.654297 11.978516 L 14 11.5 L 12.654297 11.021484 L 13.267578 9.7324219 L 11.978516 10.345703 L 11.5 9 z "
     class="ColorScheme-Text"
     />
</svg>
